X: 24785
T: Maggie Brown's Favourite
R: jig
M: 6/8
K: Gmajor
|:g|dBG GAB|EFE EFG|AFD DEF|GAG G (3ABc|
dBG GAB|EFE EFG|AFD DEF|G3 G2:|
|:a|bgg gbg|afd d^cd|efg gfe|dBG Gga|
bgg gbg|afd d^cd|efg faf|d3 d^cd|
e=cA ABc|dBG GAB|cEE EFG|AFD DEF|
GFG EFG|ABc def|ged ecA|G3 G2:|

